X: 22406
T: Ladies In The Center
R: polka
M: 2/4
K: Gmajor
G,>A, B,D|ED GE|DG BG|A3A,|
G,>A, B,D|ED GE|DB, A,B,|G,4:|
Bd d>B|AG ED|GE DG|BG A2|
Bd d>B|AG ED|GE DB,|A,B, G,2:|

